X: 1
T: Jig Set #3
T: Irish Jigs
P: The Rose in the Heather Jig
C: trad., arr. by T. Traub 6-27-03
R: jig
M: 6/8
L: 1/8
K: D
|: G | "D"F3 EFE|"Bm"DFA BAF|"G"ABd ede|"A"fdB AFE|"D"F3 EFE|
"Bm"DFA BAF|"G"AdB "A"AFE|"D"FDD D2 :||: g |"D"fdB AFA|"D"fef agf|
"Em"gfg fed|"A"Bee efg|"D"fdB AFA|"D"fef agf|"G"baf "A"gfe|"D"fdc d2 :|
